X: 37838
T: Soona Lucky Da
R: reel
M: 4/4
K: Dmajor
|:A f2 A eedB|AffA eddB|A f2 A eeda -|agfd efdc|
ABgB f2 ed|BABg feee|zBgB f2 ed|1 BABc dedB:|2 BABc defg||
|:a2 d2 d2 - dA|d3 A deff -|f2 ed e4|edce dcAF|
AB-BB ef B2|zB-BB d2 B2|AB-BB ef B2|1 BABc defg:|2 BABc dedB||

